src/symbolic/emotes/face-monkey-symbolic.svg

<svg xmlns="http://www.w3.org/2000/svg" width="16" height="16"><path d="M7.84.06c-1.23.73-1.06 1.63-.91 2.03-1.8.27-3.54 1.31-4.12 3.19-.28-.21-.59-.35-.94-.35C.84 4.93 0 6.02 0 7.31 0 8.6.84 9.65 1.87 9.65c.47 0 .89-.21 1.22-.56 2.72-1.27 7.09-1.47 9.88.03.31.32.71.53 1.15.53C15.16 9.65 16 8.6 16 7.31c0-1.29-.84-2.38-1.88-2.38-.43 0-.81.2-1.12.5-.51-1.7-1.84-2.91-3.82-3.28C9.01 1.51 8.9.24 10.81.37 8.64-.42 8.09 2 8.09 2c-.27-.12-.97-.64-.25-1.94zM6 5c.55 0 1 .45 1 1s-.45 1-1 1-1-.45-1-1 .45-1 1-1zm4 0c.55 0 1 .45 1 1s-.45 1-1 1-1-.45-1-1 .45-1 1-1zM2 6c.25 0 .47.15.65.34-.03.53-.02 1.12.13 1.75-.19.29-.45.5-.78.5-.58 0-1.03-.57-1.03-1.28C.97 6.59 1.42 6 2 6zm12.03 0c.57 0 1.06.59 1.06 1.31 0 .71-.49 1.28-1.06 1.28-.37 0-.66-.26-.85-.63.06-.48.04-.93 0-1.37.19-.35.49-.59.85-.59z" fill="#444"/><path d="M8 9c-3.31 0-6 1.35-6 3s2.69 3 6 3 6-1.35 6-3-2.69-3-6-3zm-2.83 1.82C5.92 11.57 6.94 12 8 12s2.08-.43 2.83-1.18l.7.71C10.6 12.47 9.33 13 8 13c-1.33 0-2.6-.53-3.53-1.47z" fill="#444"/></svg>

<svg xmlns="http://www.w3.org/2000/svg" width="16" height="16" version="1.1">
 <path style="fill:#444444" d="M 7.84,0.06 C 6.61,0.79 6.78,1.69 6.93,2.09 5.13,2.36 3.39,3.4 2.81,5.28 2.53,5.07 2.22,4.93 1.87,4.93 0.84,4.93 0,6.02 0,7.31 0,8.6 0.84,9.65 1.87,9.65 2.34,9.65 2.76,9.44 3.09,9.09 5.81,7.82 10.18,7.62 12.97,9.12 13.28,9.44 13.68,9.65 14.12,9.65 15.16,9.65 16,8.6 16,7.31 16,6.02 15.16,4.93 14.12,4.93 13.69,4.93 13.31,5.13 13,5.43 12.49,3.73 11.16,2.52 9.18,2.15 9.01,1.51 8.9,0.24 10.81,0.37 8.64,-0.42 8.09,2 8.09,2 7.82,1.88 7.12,1.36 7.84,0.06 Z M 6,5 C 6.55,5 7,5.45 7,6 7,6.55 6.55,7 6,7 5.45,7 5,6.55 5,6 5,5.45 5.45,5 6,5 Z M 10,5 C 10.55,5 11,5.45 11,6 11,6.55 10.55,7 10,7 9.45,7 9,6.55 9,6 9,5.45 9.45,5 10,5 Z M 2,6 C 2.25,6 2.47,6.15 2.65,6.34 2.62,6.87 2.63,7.46 2.78,8.09 2.59,8.38 2.33,8.59 2,8.59 1.42,8.59 0.97,8.02 0.97,7.31 0.97,6.59 1.42,6 2,6 Z M 14.03,6 C 14.6,6 15.09,6.59 15.09,7.31 15.09,8.02 14.6,8.59 14.03,8.59 13.66,8.59 13.37,8.33 13.18,7.96 13.24,7.48 13.22,7.03 13.18,6.59 13.37,6.24 13.67,6 14.03,6 Z"/>
 <path style="fill:#444444" d="M 8,9 C 4.69,9 2,10.35 2,12 2,13.65 4.69,15 8,15 11.31,15 14,13.65 14,12 14,10.35 11.31,9 8,9 Z M 5.17,10.82 C 5.92,11.57 6.94,12 8,12 9.06,12 10.08,11.57 10.83,10.82 L 11.53,11.53 C 10.6,12.47 9.33,13 8,13 6.67,13 5.4,12.47 4.47,11.53 Z"/>
</svg>
